src/img/HamburgerBtn.svg

<svg fill="none" height="20" viewBox="0 0 30 20" width="30" xmlns="http://www.w3.org/2000/svg"><g fill="#777"><path d="m27.2327 0h-24.46538c-.21151 0-.41758.067067-.58858.19156l-1.186789.86404c-.512064.3728-.552936 1.1217-.084483 1.54802l1.248242 1.13597c.18412.16755.42411.26041.67306.26041h24.34243c.249 0 .489-.09286.6731-.26041l1.2482-1.13597c.4685-.42632.4276-1.17522-.0845-1.54802l-1.1867-.86404c-.171-.1244929-.3771-.19156-.5886-.19156z"/><path d="m27.2327 8h-24.46538c-.21151 0-.41758.06707-.58858.19156l-1.186789.86404c-.512064.3728-.552936 1.1217-.084483 1.548l1.248242 1.136c.18412.1675.42411.2604.67306.2604h24.34243c.249 0 .489-.0929.6731-.2604l1.2482-1.136c.4685-.4263.4276-1.1752-.0845-1.548l-1.1867-.86404c-.171-.12449-.3771-.19156-.5886-.19156z"/><path d="m27.2327 16h-24.46538c-.21151 0-.41758.0671-.58858.1916l-1.186789.864c-.512064.3728-.552936 1.1217-.084483 1.548l1.248242 1.136c.18412.1675.42411.2604.67306.2604h24.34243c.249 0 .489-.0929.6731-.2604l1.2482-1.136c.4685-.4263.4276-1.1752-.0845-1.548l-1.1867-.864c-.171-.1245-.3771-.1916-.5886-.1916z"/></g></svg>

<svg width="30" height="20" viewBox="0 0 30 20" fill="none" xmlns="http://www.w3.org/2000/svg">
<path d="M27.2327 0H2.76732C2.55581 0 2.34974 0.067067 2.17874 0.19156L0.991951 1.0556C0.479887 1.4284 0.439015 2.1773 0.907468 2.60362L2.15571 3.73959C2.33983 3.90714 2.57982 4 2.82877 4H27.1712C27.4202 4 27.6602 3.90714 27.8443 3.73959L29.0925 2.60362C29.561 2.1773 29.5201 1.4284 29.008 1.0556L27.8213 0.19156C27.6503 0.0670671 27.4442 0 27.2327 0Z" fill="#777777"/>
<path d="M27.2327 8H2.76732C2.55581 8 2.34974 8.06707 2.17874 8.19156L0.991951 9.0556C0.479887 9.4284 0.439015 10.1773 0.907468 10.6036L2.15571 11.7396C2.33983 11.9071 2.57982 12 2.82877 12H27.1712C27.4202 12 27.6602 11.9071 27.8443 11.7396L29.0925 10.6036C29.561 10.1773 29.5201 9.4284 29.008 9.0556L27.8213 8.19156C27.6503 8.06707 27.4442 8 27.2327 8Z" fill="#777777"/>
<path d="M27.2327 16H2.76732C2.55581 16 2.34974 16.0671 2.17874 16.1916L0.991951 17.0556C0.479887 17.4284 0.439015 18.1773 0.907468 18.6036L2.15571 19.7396C2.33983 19.9071 2.57982 20 2.82877 20H27.1712C27.4202 20 27.6602 19.9071 27.8443 19.7396L29.0925 18.6036C29.561 18.1773 29.5201 17.4284 29.008 17.0556L27.8213 16.1916C27.6503 16.0671 27.4442 16 27.2327 16Z" fill="#777777"/>
</svg>
